X:1
T:A Little Child Is Born Tonight
T:A Little Child Is Born Tonight
T:A. H. Brown
T:A. H. Brown
T:Public Domain Courtesy of the Cyber Hymnal™
T:Public Domain Courtesy of the Cyber Hymnal™
C:A. H. Brown
Z:Public Domain
Z:Courtesy of the Cyber Hymnal™
%%score ( 1 2 ) ( 3 4 )
L:1/8
Q:1/4=110
M:6/8
K:D
V:1 treble 
V:2 treble 
V:3 bass 
V:4 bass 
V:1
 [EA] | [Fd]2 [Fd] (cd)e | d2 a [Bg]2 [Ge] | [Fd]2 [DF] A2 G | [A,DF]4 z"^Voices in Unison" [EA] | %5
w: ~|~ ~ ~ * ~|~ ~ ~ ~|~ ~ ~ ~|~ 1.~A|
w: ~|~ ~ ~ * ~|~ ~ ~ ~|~ ~ ~ ~|~ 2.~A|
w: ~|~ ~ ~ * ~|~ ~ ~ ~|~ ~ ~ ~|~ 3.~A|
 d2 d (cd)e | d2 c (Bc)d | [EA]2 F (GA)B | E3- [CE]2 [CE] | G2 G (FG)F | %10
w: lit- tle child * is|born to- night, * And|He shall lead * His|own, To end-|* less day, * to|
w: lit- tle child * is|born to- night, * And|shep- herds haste * to|see Their God|* and king * in|
w: lit- tle child * is|born to- night, * To|hearts for long * years|lone, To An-|* na, wi- * dow,|
 E2 D [B,E]2 [DF] ([EG][FA])[GB] c2 d | e2 c [EA]2 [GA] | [FA]2 [Ad] [GB]2 [EG] | ([DF]3 [CE]) z || %14
w: glo- ry~bright, To lands of * ev- er- last-|ing light, And to|our Fa- ther’s throne.|A *|
w: in- fant~form, And wor- ship * with their true|hearts warm, The Christ|on bend- ed knee.|A *|
w: Si- meon,~sage Their Star of * child- hood, joy|of age, For ev-|er- more their own.|A *|
"^Refrain" [Ae] | [Ae]2 [Ad] (cB)[EA] | [Dd]2 [DF] [EA]2 [CG] | (FE)D [DF]2 [D^G] | %18
w: lit-|tle child is * born|to- night, And in|the * star- ry sky,|
w: lit-|tle child is * born|to- night, And wise|men * from a- far|
w: lit-|tle child is * born|to- night, O come|ye, * one and all,|
 ([CA]2 [Fd] [Ec]2) [^GB] | A2 [Af] [^Ge]2 [Ge] | (dc)[Ed] [Ec]2 F | B2 d c2 F | B2 A G2 E | %23
w: To * * Him|the an- gels car-|ols * bring: “Good will|and peace to men,”|they sing, “Glo- ry|
w: Fol- * * low|a- fresh that wond-|rous * light, That glow-|eth in the heav’n-|ly height, The Sav-|
w: And * * hail|in faith, and hope,|and * love, The Child|who left His throne|a- bove, To lie|
 [DA]2 [DG] [DF]2 [CE] | d3- [Fd]2 [Fd] | [Af]2 [Ge] [Fd]2 [Ec] | [Fd]3- [Fd]6 |] %27
w: to God on high,|Glo- ry to|* God on high.”||
w: ior’s morn- ing star,|The Sav- ior’s|* morn- ing star.||
w: in yon- der stall,|To lie in|* yon- der stall.||
V:2
 x | x3 G3 | A3 x3 | x3 C3 | x6 | F3 G3 | A3 G3 | x3 D3 | C2 B, x3 | B,3 D3 | B,3- x4 A3 x2 | %11
 A3 x3 | x6 | x5 || x | x3 A2 x | x6 | D2 D x3 | x6 | A2 x4 | A2 x2 F x | B2 d c2 F | B2 A G2 E | %23
 x6 | D2 G x3 | x6 | x9 |] %27
V:3
 [C,,C,] | [D,,D,]3 [E,,E,]3 | [F,,F,]3 [G,,G,]3 | [A,,A,]3 [A,,E,]3 | [D,,D,]4 z C, | D,3 E,3 | %6
 F,3 G,2 B, | C2 D B,2 G, | A,3- A,2 A, | E,2 E, B,,2 B,, | (G,,2 B,, E,2) B, E2 E, A,2 B, | %11
 C3- C2 C | D2 F, G,3 | A,3- A, z || [A,C] | [A,C]2 [A,B,] (ED)[A,C] | %16
 [F,A,]2 [D,A,] [C,A,]2 [C,A,] | [D,A,]2 [F,A,] B,2 [B,,B,] | (E,2 D, [A,,A,]2) [B,,D] | %19
 [C,E]2 [D,D] [E,B,]2 [E,B,] | [F,A,]2 [^G,B,] [A,C]2 F, | B,2 D C2 F, | B,2 A, G,2 [E,G,] | %23
 [F,A,]2 [G,B,] A,2 [G,A,] | A,3 [D,D]2 [B,,D] | [F,,D]2 [G,,B,] [A,,A,]2 [A,,A,] | %26
 [D,A,]3- [D,A,]6 |] %27
V:4
 x | x6 | x6 | x6 | x6 | x6 | x6 | x6 | x6 | x6 | x12 | x6 | x6 | x5 || x | x3 A,2 x | x6 | %17
 x3 D,C, x | A,,3- x3 | x6 | x5 F, | B,2 D C2 F, | B,2 A, G,2 x | x3 A,2 x | F,2 E, x3 | x6 | x9 |] %27

